X:1
T:Title
%%score { ( 1 3 ) | ( 2 4 ) }
L:1/8
M:4/4
K:F
V:1 treble nm="Grand Piano"
V:3 treble 
V:2 bass 
V:4 bass 
V:1
 z4 z2[Q:1/4=100] C2 | [A,CF]3 [A,CF] [F,CF]2 G2 | A6 F2 | G3 G A2 =B2 | [Ec]6 [Ec]2 | d3 c B2 A2 | %6
 c3 B [CDA]2 [B,DG]2 | z4 z2 G2 |[M:3/4] F6 |] %9
V:2
 z4 z2 C,2 | F,,3 F,, A,,2 [C,E,C]2 | [F,C]6[K:treble] [A,C]2 | [G,CE]3 [G,CE] [G,CF]2 [G,DF]2 | %4
 [C,C]6 [C,B,]2 | [F,A,_E]3 [F,A,E] [F,DE]2 [F,CE]2 | [^F,A,_E]3 [G,B,D] B,,2 B,,2 | %7
 C,2 [C,G,]2 z B, z B, |[M:3/4] [F,A,]6 |] %9
V:3
 x8 | x8 | x8 | x8 | x8 | x8 | x8 | [A,CF]2 [EB]2 .[A,FA]2 [CF]E |[M:3/4] x6 |] %9
V:4
 x8 | x8 | x6[K:treble] x2 | x8 | x8 | x8 | x8 | z4 C,2 C,2 |[M:3/4] x6 |] %9

